udata_front/theme/gouvfr/templates/svg/administration.svg

<svg fill="none" height="16" viewBox="0 0 12 12" width="16" xmlns="http://www.w3.org/2000/svg"><path clip-rule="evenodd" d="m1.67015 8.49991c-.21136-.36551-.37567-.75627-.489-1.163.50294-.2558.81978-.77219.81999-1.33644s-.31624-1.08088-.81899-1.33706c.22602-.81726.65637-1.56352 1.2505-2.1685.47316.30762 1.07893.32362 1.56767.04142.48873-.28221.77771-.81485.74783-1.37842.82106-.212187 1.68262-.211843 2.5035.001-.02961.56356.25959 1.09605.74842 1.37803.48883.28199 1.09456.26575 1.56758-.04203.2895.295.54655.6305.76255 1.005.2165.3745.3785.765.489 1.163-.503.2558-.81982.7722-.82003 1.33644-.00021.56425.31623 1.08089.81903 1.33706-.2261.81726-.6564 1.56353-1.25055 2.1685-.47315-.30761-1.07892-.32362-1.56766-.04141-.48874.2822-.77772.8148-.74784 1.3784-.82105.2122-1.68261.2119-2.5035-.001.02962-.5635-.25958-1.09603-.74841-1.37802-.48883-.28198-1.09457-.26574-1.56759.04203-.2955-.30153-.5517-.6392-.7625-1.005zm2.82989.09801c.53281.30732.93342.80051 1.125 1.385.2495.02348.5.02398.7495.0005.1917-.58457.59249-1.07778 1.1255-1.385.5326-.30815 1.16026-.40876 1.7625-.2825.145-.204.26999-.4215.37399-.649-.41028-.45828-.63694-1.05189-.63649-1.667 0-.63.23499-1.2185.63649-1.667-.10473-.22742-.23026-.44468-.375-.649-.60185.12616-1.2291.02574-1.76149-.282-.53282-.30731-.93343-.80051-1.125-1.385-.2495-.0235-.5-.024-.7495-.0005-.19171.58458-.5925 1.07778-1.1255 1.385-.53261.30816-1.16027.40876-1.7625.2825-.14472.20415-.26994.42143-.374.649.41028.45828.63694 1.0519.6365 1.667 0 .63-.235 1.2185-.6365 1.667.10473.22743.23026.44469.375.649.60185-.12615 1.2291-.02574 1.7615.282zm1.50002-1.09797c-.82843 0-1.5-.67158-1.5-1.5 0-.82843.67157-1.5 1.5-1.5s1.5.67157 1.5 1.5c0 .82842-.67157 1.5-1.5 1.5zm0-1.00001c.27614 0 .5-.22385.5-.5 0-.27614-.22386-.5-.5-.5s-.5.22386-.5.5c0 .27615.22386.5.5.5z" fill="#3558a2" fill-rule="evenodd"/></svg>

<svg aria-hidden="true" width="16" height="16" viewBox="0 0 12 12" fill="none" xmlns="http://www.w3.org/2000/svg">
<g id="settings-line">
<path id="&#240;&#159;&#142;&#168; Couleur ic&#195;&#180;ne" fill-rule="evenodd" clip-rule="evenodd" d="M1.67015 8.49991C1.45879 8.1344 1.29448 7.74364 1.18115 7.33691C1.68409 7.08111 2.00093 6.56472 2.00114 6.00047C2.00135 5.43622 1.6849 4.91959 1.18215 4.66341C1.40817 3.84615 1.83852 3.09989 2.43265 2.49491C2.90581 2.80253 3.51158 2.81853 4.00032 2.53633C4.48905 2.25412 4.77803 1.72148 4.74815 1.15791C5.56921 0.945723 6.43077 0.946067 7.25165 1.15891C7.22204 1.72247 7.51124 2.25496 8.00007 2.53694C8.4889 2.81893 9.09463 2.80269 9.56765 2.49491C9.85715 2.78991 10.1142 3.12541 10.3302 3.49991C10.5467 3.87441 10.7087 4.26491 10.8192 4.66291C10.3162 4.91871 9.99938 5.43511 9.99917 5.99935C9.99896 6.5636 10.3154 7.08024 10.8182 7.33641C10.5921 8.15367 10.1618 8.89994 9.56765 9.50491C9.0945 9.1973 8.48873 9.18129 7.99999 9.4635C7.51125 9.7457 7.22227 10.2783 7.25215 10.8419C6.4311 11.0541 5.56954 11.0538 4.74865 10.8409C4.77827 10.2774 4.48907 9.74487 4.00024 9.46288C3.51141 9.1809 2.90567 9.19714 2.43265 9.50491C2.13715 9.20338 1.88095 8.86571 1.67015 8.49991ZM4.50004 8.59792C5.03285 8.90524 5.43346 9.39843 5.62504 9.98292C5.87454 10.0064 6.12504 10.0069 6.37454 9.98342C6.56624 9.39885 6.96703 8.90564 7.50004 8.59842C8.03264 8.29027 8.6603 8.18966 9.26254 8.31592C9.40754 8.11192 9.53253 7.89442 9.63653 7.66692C9.22625 7.20864 8.99959 6.61503 9.00004 5.99992C9.00004 5.36992 9.23503 4.78142 9.63653 4.33292C9.5318 4.1055 9.40627 3.88824 9.26153 3.68392C8.65968 3.81008 8.03243 3.70966 7.50004 3.40192C6.96722 3.09461 6.56661 2.60141 6.37504 2.01692C6.12554 1.99342 5.87504 1.99292 5.62554 2.01642C5.43383 2.601 5.03304 3.0942 4.50004 3.40142C3.96743 3.70958 3.33977 3.81018 2.73754 3.68392C2.59282 3.88807 2.4676 4.10535 2.36354 4.33292C2.77382 4.7912 3.00048 5.38482 3.00004 5.99992C3.00004 6.62992 2.76504 7.21842 2.36354 7.66692C2.46827 7.89435 2.5938 8.11161 2.73854 8.31592C3.34039 8.18977 3.96764 8.29018 4.50004 8.59792ZM6.00006 7.49995C5.17163 7.49995 4.50006 6.82837 4.50006 5.99995C4.50006 5.17152 5.17163 4.49995 6.00006 4.49995C6.82849 4.49995 7.50006 5.17152 7.50006 5.99995C7.50006 6.82837 6.82849 7.49995 6.00006 7.49995ZM6.00006 6.49994C6.2762 6.49994 6.50006 6.27609 6.50006 5.99994C6.50006 5.7238 6.2762 5.49994 6.00006 5.49994C5.72392 5.49994 5.50006 5.7238 5.50006 5.99994C5.50006 6.27609 5.72392 6.49994 6.00006 6.49994Z" fill="#3558A2"/>
</g>
</svg>
